neru-dark-classic/22x22/emotes/face-shutmouth-symbolic.svg

<svg xmlns="http://www.w3.org/2000/svg" width="16" height="16"><path d="M8 1C4.13 1 1 4.13 1 8c0 3.86 3.13 7 7 7s7-3.14 7-7c0-3.87-3.13-7-7-7zM5 5c.55 0 1 .45 1 1s-.45 1-1 1-1-.45-1-1 .45-1 1-1zm6 0c.55 0 1 .45 1 1s-.45 1-1 1-1-.45-1-1 .45-1 1-1zM4 9l4 1 4-1c.02.14.02.27 0 .4-.06.39-.27.67-.66.75L10 10.5l1.31.31c.54.14.66.5.69.84.01.12 0 .24 0 .35l-4-1-4 1c-.07-.64.05-.98.53-1.13L6 10.5l-1.5-.35c-.47-.13-.58-.67-.5-1.15z" fill="#d3dae3"/></svg>

<svg xmlns="http://www.w3.org/2000/svg" width="16" height="16" version="1.1">
 <path style="fill:#d3dae3" d="M 8,1 C 4.13,1 1,4.13 1,8 1,11.86 4.13,15 8,15 11.87,15 15,11.86 15,8 15,4.13 11.87,1 8,1 Z M 5,5 C 5.55,5 6,5.45 6,6 6,6.55 5.55,7 5,7 4.45,7 4,6.55 4,6 4,5.45 4.45,5 5,5 Z M 11,5 C 11.55,5 12,5.45 12,6 12,6.55 11.55,7 11,7 10.45,7 10,6.55 10,6 10,5.45 10.45,5 11,5 Z M 4,9 8,10 12,9 C 12.02,9.14 12.02,9.27 12,9.4 11.94,9.79 11.73,10.07 11.34,10.15 L 10,10.5 11.31,10.81 C 11.85,10.95 11.97,11.31 12,11.65 12.01,11.77 12,11.89 12,12 L 8,11 4,12 C 3.93,11.36 4.05,11.02 4.53,10.87 L 6,10.5 4.5,10.15 C 4.03,10.02 3.92,9.48 4,9 Z"/>
</svg>
